server/website/public/icons/base/pdf.svg

<svg width="48" height="48" viewBox="0 0 48 48" fill="none" xmlns="http://www.w3.org/2000/svg">
<path d="M15.0483 30.4268C14.6071 30.4268 14.3097 30.4699 14.1562 30.5131V33.3379C14.3385 33.3811 14.5663 33.3931 14.8804 33.3931C16.0291 33.3931 16.7365 32.8128 16.7365 31.832C16.7365 30.9543 16.1274 30.4268 15.0483 30.4268ZM23.4101 30.4555C22.9305 30.4555 22.6188 30.4987 22.4341 30.5419V36.8006C22.6188 36.8438 22.9161 36.8438 23.1847 36.8438C25.1439 36.8582 26.4196 35.7791 26.4196 33.4962C26.434 31.5059 25.271 30.4555 23.4101 30.4555Z" fill="black"/>
<path d="M28.7964 0.0195312H9.61241C8.34043 0.0195313 7.12055 0.524823 6.22112 1.42425C5.3217 2.32367 4.81641 3.54355 4.81641 4.81553V43.1835C4.81641 44.4555 5.3217 45.6754 6.22112 46.5748C7.12055 47.4742 8.34043 47.9795 9.61241 47.9795H38.3884C39.6604 47.9795 40.8803 47.4742 41.7797 46.5748C42.6791 45.6754 43.1844 44.4555 43.1844 43.1835V14.4075L28.7964 0.0195312ZM18.0006 34.0472C17.2596 34.7426 16.1661 35.0543 14.8928 35.0543C14.6459 35.057 14.3991 35.0426 14.1542 35.0111V38.4307H12.0104V28.9922C12.9779 28.8478 13.9555 28.7821 14.9336 28.7955C16.2693 28.7955 17.2189 29.0497 17.8591 29.5605C18.4682 30.0449 18.8807 30.8386 18.8807 31.7738C18.8783 32.7139 18.5665 33.5076 18.0006 34.0472ZM27.1298 37.2964C26.1226 38.1333 24.5903 38.5314 22.7175 38.5314C21.5952 38.5314 20.8015 38.4595 20.2619 38.3875V28.9946C21.2298 28.8533 22.207 28.7868 23.1851 28.7955C25.0004 28.7955 26.1802 29.1217 27.101 29.8171C28.0962 30.5557 28.7197 31.7331 28.7197 33.4237C28.7197 35.2533 28.0506 36.5171 27.1298 37.2964ZM35.9904 30.642H32.3167V32.8266H35.7506V34.5867H32.3167V38.4331H30.1441V28.8675H35.9904V30.642ZM28.7964 16.8055H26.3984V4.81553L38.3884 16.8055H28.7964Z" fill="black"/>
</svg>

<svg width="48" height="48" fill="none" xmlns="http://www.w3.org/2000/svg"><path d="M15.048 30.427c-.44 0-.738.043-.892.086v2.825c.182.043.41.055.724.055 1.15 0 1.856-.58 1.856-1.561 0-.878-.609-1.405-1.688-1.405zm8.362.029c-.48 0-.791.043-.976.086V36.8c.185.043.482.043.75.043 1.96.014 3.236-1.065 3.236-3.348.014-1.99-1.149-3.04-3.01-3.04z" fill="#000"/><path d="M28.796.02H9.612a4.796 4.796 0 00-4.796 4.796v38.367a4.796 4.796 0 004.796 4.797h28.776a4.796 4.796 0 004.796-4.796V14.408L28.796.02zM18.001 34.047c-.741.696-1.835 1.007-3.108 1.007a5.333 5.333 0 01-.739-.043v3.42H12.01v-9.439c.968-.144 1.946-.21 2.924-.197 1.335 0 2.285.255 2.925.765.61.485 1.022 1.279 1.022 2.214-.003.94-.314 1.734-.88 2.273zm9.129 3.25c-1.007.836-2.54 1.234-4.412 1.234-1.123 0-1.916-.072-2.456-.143v-9.393a19.061 19.061 0 012.923-.2c1.815 0 2.995.327 3.916 1.022.995.739 1.619 1.916 1.619 3.607 0 1.83-.67 3.093-1.59 3.872zm8.86-6.655h-3.673v2.185h3.434v1.76h-3.434v3.846h-2.173v-9.566h5.846v1.775zm-7.194-13.837h-2.398V4.815l11.99 11.99h-9.592z" fill="#000"/></svg>
